!!!!SEGMENT: pl-kk--kk-i-69--005_anonim--protexisti-pro-festo-patrem.krn
!!!cenid: 17xx:2286
!!!COM: Anonim
!!!COM-rismID: pe30004985
!!!CDT:
!!!CNT:
!!!OPR: Protexisti pro festo
!!!OTL: Patrem
!!!OMV: 005
!!!PDT:
!!!AGN: Sacred; Mass
!!!SMS-siglum: PL-Kk
!!!SMS-shelfmark: Kk.I.69
!!!SMS-shelfwork: 001-005 M
!!!SMS-variant:
!!!SMS-altvar:
!!!NIFC-rismSourceID: 1001154789
!!!NIFC-rismChildID: 1001154789
!!!NIFC-islandoraID: pl-kk:15747
!!!URL-pdf-islandora: https://repozytorium.nifc.pl/islandora/object/pl-kk%3A15747/datastream/PDF/view
!!!URL-scan: https://polish.musicsources.pl/pl/lokalizacje/galeria/rekopisy/7324/1 @EN{Scan on Polish Music Sources Website} @PL{Skany w portalu Dziedzictwo Muzyki Polskiej w otwartym dostępie}
!!!IIIF:
!!!ONB-nifc: UWAGA: części Mszy: 1. Protexisti me, 2. Kyrie, 3. Et in terra, 4. Alleluia, 5. Patrem, 6. Posuisti Domine, 7. Sanctus, 8. Benedictus, 9. Agnus Dei, 10. Dona nobis, 11. Deo gratias
!!!AIN: 1 empty 2 tenor
!!!key:
**kern	**text	**kern	**text	**kern	**text
*part3	*part3	*part2	*part2	*part1	*part1
*staff3	*staff3	*staff2	*staff2	*staff1	*staff1
*Iempty	*	*Itenor	*	*Itenor	*
*I"Baſso	*	*I"Tenore Secundo	*	*I"Tenore Primo	*
*I'B	*	*I'T 2	*	*I'T 1	*
*clefF4	*	*clefC4	*	*clefC4	*
*k[]	*	*k[]	*	*k[]	*
*C:	*	*C:	*	*C:	*
*M2/2	*	*M2/2	*	*M2/2	*
*met(c|)	*	*met(c|)	*	*met(c|)	*
=1	=1	=1	=1	=1	=1
2C/	Pa-	1G	Pa-	1e	Pa-
*2\right	*	*	*	*	*
2c\	.	.	.	.	.
=2	=2	=2	=2	=2	=2
*	*	*2\right	*	*2\right	*
2G\	-trem	2B\	-trem	2d\	-trem
2E\	om-	2c\	om-	2e\	om-
=3	=3	=3	=3	=3	=3
2F\	-ni-	2d\	-ni-	2f\	-ni-
2G\	-po-	2B\	-po-	2d\	-po-
=4	=4	=4	=4	=4	=4
4E\	-ten-	4c\	-ten-	4e\	-ten-
4D\	.	4d\	.	4f\	.
2C/	-tem	2e\	-tem	2g\	-tem
=5	=5	=5	=5	=5	=5
2r	.	2r	.	2r	.
2C/	fac-	2e\	fac-	2g\	fac-
=6	=6	=6	=6	=6	=6
2C/	-to-	2e\	-to-	2g\	-to-
2C/	-rem	4d\	-rem	4f\	-rem
.	.	4c\	.	4e\	.
=7	=7	=7	=7	=7	=7
2G\	Cae-	2d\	Cae-	2f\	cae-
4c\	-li	4G/	-li	4e\	-li
4c\	et	4G/	et	4e\	et
!LO:LB:g=original	!	!LO:LB:g=original	!	!LO:LB:g=original	!
=8	=8	=8	=8	=8	=8
2G\	ter-	2c\	ter-	2e\	ter-
2G\	-rae,	2B\	-rae,	2d\	-rae,
=9	=9	=9	=9	=9	=9
2.G\	vi-	4B\	vi-	4d\	vi-
.	.	4c\	.	4e\	.
.	.	4d\	.	4f\	.
4F\	-si-	4B\	-si-	4d\	-si-
=10	=10	=10	=10	=10	=10
4E\	-bi-	4c\	-bi-	4e\	-bi-
4D\	-li-	4d\	-li-	4f\	-li-
2C/	-um	2e\	-um	2g\	-um
=11	=11	=11	=11	=11	=11
2.G\	o-	4d\	o-	4f\	o-
.	.	4c\	.	4e\	.
.	.	4B\	.	4d\	.
4G\	-mni-	4c\	-mni-	4e\	-mni-
=12	=12	=12	=12	=12	=12
2G\	-um,	2B\	-um,	2d\	-um,
4G\	et	4B\	et	4d\	et
4G\	in-	4c\	in-	4e\	in-
=13	=13	=13	=13	=13	=13
2G\	-vi-	2d\	-vi-	2f\	-vi-
2c\	-si-	2c\	-si-	2e\	-si-
=14	=14	=14	=14	=14	=14
4G\	-bi-	2B\	-bi-	2d\	-bi-
4F\	.	.	.	.	.
4E\	.	2c\	.	2e\	.
4F\	.	.	.	.	.
!	!	!	!	!LO:LB:g=original	!
=15	=15	=15	=15	=15	=15
2.G\	.	2.B\	.	2.d\	.
4G\	-li-	4B\	-li-	4d\	-li-
!LO:LB:g=original	!	!LO:LB:g=original	!	!	!
=16	=16	=16	=16	=16	=16
2C/	-um,	2c\	-um,	2e\	-um,
4C/	et	4e\	et	4g\	et
4E/	in	4c\	in	4e\	in
=17	=17	=17	=17	=17	=17
2G\	u-	2B\	u-	2d\	u-
2G\	-num	2c\	-num	2e\	-num
=18	=18	=18	=18	=18	=18
4G\	Do-	2.d\	Do-	2.f\	Do-
4A\	.	.	.	.	.
4B\	-mi-	.	.	.	.
4G\	.	4d\	-mi-	4f\	-mi-
=19	=19	=19	=19	=19	=19
2c\	-num	2c\	-num	2e\	-num
2r	.	4B\	Je-	4d\	Je-
.	.	4c\	.	4e\	.
=20	=20	=20	=20	=20	=20
2G\	Je-	2d\	.	2f\	.
2G\	-sum	2c\	-sum	2e\	-sum
=21	=21	=21	=21	=21	=21
1G	Chri-	2B\	Chri-	2d\	chri-
.	.	2c\	.	2e\	.
=22	=22	=22	=22	=22	=22
1G	-stum	1B	-stum	1d	-stum
!	!	!	!	!LO:LB:g=original	!
=23	=23	=23	=23	=23	=23
4G\	fi-	2d\	fi-	2f\	fi-
4A\	.	.	.	.	.
4B\	-li-	4d\	-li-	4f\	-li-
4G\	-um	4d\	-um	4f\	-um
!LO:LB:g=original	!	!LO:LB:g=original	!	!	!
=24	=24	=24	=24	=24	=24
4c\	De-	2G/	De-	2e\	De-
4G\	.	.	.	.	.
4E\	.	2G/	-i	2e\	-i
4C\	-i	.	.	.	.
=25	=25	=25	=25	=25	=25
4G\	u-	2B\	u-	2d\	u-
4F\	.	.	.	.	.
4E\	-ni-	2c\	-ni-	2e\	-ni-
4F\	.	.	.	.	.
=26	=26	=26	=26	=26	=26
2.G\	-ge-	2.B\	-ge-	2.d\	-ge-
4G\	-ni-	4B\	-ni-	4d\	-ni-
=27	=27	=27	=27	=27	=27
2C/	-tum	2c\	-tum.	2e\	-tum
2r	.	2r	.	2r	.
=28	=28	=28	=28	=28	=28
4C/	Et	4e\	Et	4g\	Et
4D/	.	4d\	.	4f\	.
4E/	ex	4c\	ex	4e\	ex
4C/	.	4e\	.	4g\	.
=29	=29	=29	=29	=29	=29
2C/	Pa-	2f\	Pa-	2a\	Pa-
2C/	-tre	2e\	-tre	2g\	-tre
=30	=30	=30	=30	=30	=30
4D/	na-	1d	na-	1f	na-
4C/	.	.	.	.	.
4BB/	.	.	.	.	.
4GG/	.	.	.	.	.
!LO:LB:g=original	!	!	!	!	!
=31	=31	=31	=31	=31	=31
2C/	-tum	2c\	-tum	2e\	-tum
!	!	!	!	!LO:LB:g=original	!
=-	=-	=-	=-	=-	=-
4G\	an-	4B\	an-	4d\	an-
4G\	-te	4c\	-te	4e\	-te
!	!	!LO:LB:g=original	!	!	!
=32	=32	=32	=32	=32	=32
2.G\	o-	2.d\	o-	2.f\	o-
4G\	-mni-	4c\	-mni-	4e\	-mni-
=33	=33	=33	=33	=33	=33
1G	-a	1B	-a	1d	-a
=34	=34	=34	=34	=34	=34
4C/	an-	2G/	an-	4e\	an-
4BB/	.	.	.	4d\	.
4C/	-te	2G/	-te	4e\	-te
4D/	.	.	.	4f\	.
=35	=35	=35	=35	=35	=35
2E\	o-	2G/	o-	2g\	o-
4D/	-mni-	4G/	-mni-	4f\	-mni-
4C/	-a	4G/	-a	4e\	-a
=36	=36	=36	=36	=36	=36
1G	sae-	2B\	sae-	2d\	sae-
.	.	2c\	.	2e\	.
=37	=37	=37	=37	=37	=37
2.G\	.	2c\	.	2.d\	.
.	.	2B\	-cu-	.	.
4G\	-cu-	.	.	4d\	-cu-
=38	=38	=38	=38	=38	=38
2C/	-la	2c\	-la	2e\	-la
2c\	De-	2e\	De-	2g\	De-
!LO:LB:g=original	!	!	!	!	!
=39	=39	=39	=39	=39	=39
2B\	-um	2d\	-um	2f\	-um
2c\	de	2c\	de	2e\	de
!	!	!LO:LB:g=original	!	!LO:LB:g=original	!
=40	=40	=40	=40	=40	=40
1G	De-	4d\	De-	4f\	De-
.	.	4c\	.	4e\	.
.	.	4d\	.	4f\	.
.	.	4B\	.	4d\	.
=41	=41	=41	=41	=41	=41
2C/	-o	2c\	-o	2e\	-o
2C/	lu-	2e\	lu-	2g\	lu-
=42	=42	=42	=42	=42	=42
2BB/	-men	2f\	-men	2a\	-men
2C/	de	2e\	de	2g\	de
=43	=43	=43	=43	=43	=43
2.G\	lu-	2.d\	lu-	2.f\	lu-
4G\	-mi-	4d\	-mi-	4f\	-mi-
=44	=44	=44	=44	=44	=44
!	!	!	!	!LO:N:vis=1.	!
1C	-ne	1c	-ne	1e	-ne
=45	=45	=45	=45	=45	=45
1G	De-	2.B\	De-	2.d\	De-
.	.	4c\	.	4e\	.
=46	=46	=46	=46	=46	=46
2G\	.	4d\	.	4f\	.
.	.	4c\	.	4e\	.
2G\	-um	4d\	.	4f\	.
.	.	4B\	-um	4d\	-um
=47	=47	=47	=47	=47	=47
2E\	ve-	2c\	ve-	2e\	ve-
2C/	.	2e\	.	2g\	.
!LO:LB:g=original	!	!LO:LB:g=original	!	!	!
=48	=48	=48	=48	=48	=48
2BB/	-rum	2d\	-rum	2f\	-rum
2C/	de	2c\	de	2e\	de
!	!	!	!	!LO:LB:g=original	!
=49	=49	=49	=49	=49	=49
4G\	De-	2B\	De-	2d\	De-
4F\	.	.	.	.	.
4E\	-o	2c\	-o	2e\	-o
4F\	.	.	.	.	.
=50	=50	=50	=50	=50	=50
1G	ve-	1B	ve-	1d	ve-
=51	=51	=51	=51	=51	=51
2C/	-ro	2c\	-ro	2e\	-ro
2r	.	2r	.	2r	.
=52	=52	=52	=52	=52	=52
4C/	Ge-	2.e\	Ge-	2.g\	Ge-
4E/	.	.	.	.	.
4G\	.	.	.	.	.
4B\	-ni-	4d\	-ni-	4f\	-ni-
=53	=53	=53	=53	=53	=53
2c\	-tum	2c\	-tum	2e\	-tum
2C/	non	2e\	non	2g\	non
=54	=54	=54	=54	=54	=54
1G	fac-	4d\	fac-	4f\	fa-
.	.	4c\	.	4e\	.
.	.	4d\	.	4f\	.
.	.	4B\	.	4d\	.
=55	=55	=55	=55	=55	=55
2C/	-tum	2c\	-tum	2e\	-ctum
4G\	con-	4B\	con-	4d\	con-
4G\	-sub-	4c\	-sub-	4e\	-sub-
!LO:LB:g=original	!	!LO:LB:g=original	!	!	!
=56	=56	=56	=56	=56	=56
2.G\	-stan-	2d\	-stan-	2f\	-stan-
.	.	4c\	-ti-	4e\	.
4G\	-ti-	4B\	.	4d\	-ti-
!	!	!	!	!LO:PB:g=original	!
=57	=57	=57	=57	=57	=57
!	!	!	!LO:MO:mod=-a-	!	!
4E\	-a-	4c\	-la-	4e\	-a-
4D\	.	4B\	.	4f\	.
2C/	-lem	2c\	-lem	2g\	-lem
=58	=58	=58	=58	=58	=58
2D/	Pa-	1G	Pa-	2f\	Pa-
2C/	.	.	.	2e\	.
=59	=59	=59	=59	=59	=59
2BB/	-tri	2G/	-tri	2d\	-tri
2G\	per	2B\	per	2d\	per
=60	=60	=60	=60	=60	=60
2.C/	quem	1G	quem	2.e\	quem
4D/	.	.	.	4f\	o-
=61	=61	=61	=61	=61	=61
2E\	o-	2c\	o-	2g\	-mni-
4D/	-mni-	4B\	-mni-	4f\	-a
4C/	-a	4c\	-a	4e\	.
=62	=62	=62	=62	=62	=62
2.G\	fac-	2.B\	fac-	2.d\	fac-
4G\	-ta	4B\	-ta	4d\	-ta
=63	=63	=63	=63	=63	=63
2C/	sunt,	2G/	sunt,	2e\	sunt.
2C/	Qvi	2e\	Qvi	2g\	Qvi
!LO:LB:g=original	!	!LO:LB:g=original	!	!LO:LB:g=original	!
=64	=64	=64	=64	=64	=64
2C/	prop-	2c\	prop-	2e\	prop-
4F\	-ter	4d\	-ter	4f\	-ter
4F#X\	nos	4c\	nos	4e\	nos
=65	=65	=65	=65	=65	=65
4G\	ho-	4B\	ho-	4d\	ho-
4G\	-mi-	4c\	-mi-	4e\	-mi-
4G\	-nes	4d\	-nes	4f\	-nes
4G\	et	4d\	et	4f\	et
=66	=66	=66	=66	=66	=66
4c\	p(ro)p-	4c\	p(ro)p-	4e\	p(ro)p-
4G\	-ter	4d\	-ter	4f\	-ter
4E\	no-	4e\	no-	4g\	no-
8F\	-stram	8d\	-stram	8f\	-stram
8F\	sa-	8c\	sa-	8e\	sa-
=67	=67	=67	=67	=67	=67
2G\	-lu-	2B\	-lu-	2d\	-lu-
2G\	-tem	2B\	-tem	2d\	-tem
=68	=68	=68	=68	=68	=68
1r	.	1r	.	2r	.
.	.	.	.	2d\	de-
=69	=69	=69	=69	=69	=69
2r	.	2r	.	4g\	-scen-
.	.	.	.	4f\	.
4r	.	4r	.	4e\	-dit
4G\	de	4B\	de	4d\	de
!LO:PB:g=original	!	!LO:PB:g=original	!	!LO:LB:g=original	!
=70	=70	=70	=70	=70	=70
4C/	cae-	1G	cae-	4e\	cae-
4D/	.	.	.	4f\	.
4E/	.	.	.	4g\	.
4F\	.	.	.	4f\	.
=71	=71	=71	=71	=71	=71
1G	.	2c\	.	2e\	.
.	.	2B\	.	2d\	.
=72	=72	=72	=72	=72	=72
1C	-lis	1G	-lis	1e	-lis
!LO:LB:g=original	!	!LO:LB:g=original	!	!LO:LB:g=original	!
=73||	=73||	=73||	=73||	=73||	=73||
*M3/2	*	*M3/2	*	*M3/2	*
2C/	Et	2e\	Et	2g\	Et
2C/	in-	2e\	in-	2g\	in-
2C/	-car-	2e\	-car-	2g\	-car-
=74	=74	=74	=74	=74	=74
2.C/	-na-	2.e\	-na-	2.g\	-na-
4D/	-tus	4d\	-tus	4f\	-tus
2E\	est	2c\	est	2e\	est
=75	=75	=75	=75	=75	=75
1.G	de	2B\	de	2d\	de
.	.	2c\	.	2e\	.
.	.	2d\	.	2f\	spi-
=76	=76	=76	=76	=76	=76
2E\	spi-	2c\	spi-	2e\	-[[ri]]-
2D\	-ri-	2d\	-ri-	2f\	-ri-
2C\	-tu	2e\	-tu	2g\	-tu
=77	=77	=77	=77	=77	=77
1.C	san-	4e\	san-	4g\	san-
.	.	4d\	.	4f\	.
.	.	4c\	.	4e\	.
.	.	4e\	.	4g\	.
.	.	4d\	.	4f\	.
.	.	4c\	.	4e\	.
!	!	!	!	!LO:LB:g=original	!
=78	=78	=78	=78	=78	=78
2G\	-cto	2B\	-cto	2d\	-cto
2G\	ex	2B\	ex	2d\	ex
2G\	Ma-	2c\	Ma-	2e\	Ma-
!	!	!LO:LB:g=original	!	!	!
=79	=79	=79	=79	=79	=79
1G	-ri-	2d\	-ri-	2f\	-ri-
.	.	2B\	.	2d\	.
2C/	-a	2c\	-a	2e\	-a
!LO:LB:g=original	!	!	!	!	!
=80	=80	=80	=80	=80	=80
2C/	vir-	2e\	vir-	2g\	vir-
2F\	.	2d\	.	2f\	.
2F#X\	-gi-	2c\	-gi-	2e\	-gi-
=81	=81	=81	=81	=81	=81
2G\	-ne	2B\	-ne	2d\	-ne
2r	.	2r	.	2r	.
2G\	et	2B\	et	2d\	et
=82	=82	=82	=82	=82	=82
2G\	ho-	1d	ho-	1f	ho-
2B\	.	.	.	.	.
2G\	-mo	2B\	-mo	2d\	-mo
=83	=83	=83	=83	=83	=83
1C	fa-	2c\	fa-	2e\	fac-
.	.	2e\	.	2g\	.
2BB/	.	2d\	.	2f\	.
!	!	!	!	!LO:LB:g=original	!
=84	=84	=84	=84	=84	=84
2C/	.	2c\	.	2e\	.
2F\	.	2d\	.	2f\	.
2G\	-ctus	2B\	-ctus	2d\	-tus
=85	=85	=85	=85	=85	=85
2C/	est	2G/	est.	2e\	est.
4C/	Cru-	2e\	Cru-	2g\	Cru-
4D/	.	.	.	.	.
4E/	-ci-	2c\	-ci-	2e\	-ci-
4F/	.	.	.	.	.
!LO:LB:g=original	!	!LO:LB:g=original	!	!	!
=86	=86	=86	=86	=86	=86
2G\	-fi-	2c\	-fi-	2e\	-fi-
2G\	-xus	2B\	-xus	2d\	-xus
2r	.	2r	.	2r	.
=87	=87	=87	=87	=87	=87
2.G\	e-	2.B\	e-	2.d\	e-
4G\	-ti-	4c\	-ti-	4e\	-ti-
4G\	-am	4d\	-am	4f\	-am
4G\	pro	4B\	pro	4d\	pro
=88	=88	=88	=88	=88	=88
4c\	no-	4c\	no-	4e\	no-
4G\	.	4d\	.	4f\	.
4E\	.	4c\	.	4e\	.
4G\	.	4d\	.	4f\	.
2C/	-bis	2e\	-bis	2g\	-bis
=89	=89	=89	=89	=89	=89
2r	.	2r	.	2r	.
1C	sub	2f\	sub	2a\	sub
.	.	2e\	.	2g\	.
!	!	!	!	!LO:LB:g=original	!
=90	=90	=90	=90	=90	=90
2.G\	Pon-	2.d\	Pon-	2.f\	Pon-
4G\	-ti-	4d\	-ti-	4f\	-ti-
4G\	-o	4d\	-o	4f\	-o
4G\	Pi-	4d\	Pi-	4f\	Pi-
=91	=91	=91	=91	=91	=91
2G\	-la-	2c\	-la-	2e\	-la-
2G\	-to	2B\	-to	2d\	-to
2r	.	2r	.	2r	.
!LO:LB:g=original	!	!LO:LB:g=original	!	!	!
=92	=92	=92	=92	=92	=92
2G\	paſ-	2d\	paſ-	2f\	paſ-
2F\	.	2B\	.	2d\	-sus
2E\	-sus	2c\	-sus	2e\	.
=93	=93	=93	=93	=93	=93
2C/	et	2e\	et	2g\	et
2D/	.	2d\	.	2f\	.
2E\	se-	2c\	se-	2e\	se-
=94	=94	=94	=94	=94	=94
2F\	-pul-	2A\	-pul-	2f\	-pul-
2G\	.	2c\	.	2e\	.
2G\	-tus	2B\	-tus	2d\	-tus
=95	=95	=95	=95	=95	=95
1.C	est	1.c	est	1.e	est
!LO:LB:g=original	!	!LO:LB:g=original	!	!LO:LB:g=original	!
=96||	=96||	=96||	=96||	=96||	=96||
*M2/2	*	*M2/2	*	*M2/2	*
*met(c|)	*	*met(c|)	*	*met(c|)	*
4r	.	4r	.	4r	.
!LO:TX:t=P:problem=4D poprawione na 4C	!	!	!	!	!
4C/	Et	4G/	Et	4e\	Et
4E/	re-	4G/	re-	4g\	re-
4C/	-sur-	4G/	-sur-	4e\	-sur-
=97	=97	=97	=97	=97	=97
4G\	-re-	4B\	-re-	4d\	-re-
4G\	-xit	4B\	-xit	4d\	-xit
4G\	ter-	4B\	ter-	4d\	ter-
8G\	-ti-	8A\	-ti-	8c\L	-ti-
8G\	-a	8B\	-a	8d\J	-a
=98	=98	=98	=98	=98	=98
4E\	di-	4G/	di-	4e\	di-
4C\	-e,	4A/	-e	4e\	-e,
4r	.	4r	.	4r	.
4C/	se-	4e\	se-	4g\	se-
=99	=99	=99	=99	=99	=99
4D\	-cun-	4d\	.	4f\	-cun-
4E\	.	4c\	-cun-	4e\	.
4F\	-dum	4B\	-dum	4d\	-dum
4F#X\	scri-	4c\	scri-	4e\	scri-
=100	=100	=100	=100	=100	=100
4G\	-ptu-	4B\	-ptu-	4d\	-ptu-
4G\	-ras	4B\	-ras	4d\	-ras
!LO:LB:g=original	!	!LO:LB:g=original	!	!	!
=-	=-	=-	=-	=-	=-
4G\	et	4B\	et	4d\	et
4G\	a-	4c\	a-	4e\	a-
!	!	!	!	!LO:LB:g=original	!
=101	=101	=101	=101	=101	=101
4B\	-scen-	2d\	-scen-	2f\	-scen-
4G\	.	.	.	.	.
4c\	-dit	4c\	-dit	4e\	-dit
4C/	in	4e\	in	4g\	in
=102	=102	=102	=102	=102	=102
2.G\	cae-	4d\	cae-	4f\	cae-
.	.	4c\	.	4e\	.
.	.	4B\	.	4d\	.
4F#X\	.	4c\	.	4e\	.
=103	=103	=103	=103	=103	=103
2G\	-lum	2B\	-lum	2d\	-lum:
4G\	se-	4B\	se-	4d\	se-
4G\	-det	4c\	-det	4e\	-det
=104	=104	=104	=104	=104	=104
2G\	se-	2d\	se-	2f\	se-
4G\	-det	4c\	-det	4e\	-det
4G\	ad	4d\	ad	4f\	ad
=105	=105	=105	=105	=105	=105
2C/	dex-	2e\	dex-	2g\	dex-
4D/	-te-	4d\	-te-	4f\	-te-
4E/	-ram	4c\	-ram	4e\	-ram
!	!	!LO:LB:g=original	!	!	!
=106	=106	=106	=106	=106	=106
2F\	Pa-	2c\	Pa-	1d	Pa-
2G\	.	2B\	.	.	.
!LO:LB:g=original	!	!	!	!	!
=107	=107	=107	=107	=107	=107
2C/	-tris,	2c\	-tris	2e\	-tris
!	!	!	!	!LO:PB:g=original	!
=-	=-	=-	=-	=-	=-
2C/	et	2e\	et	2g\	et
=108	=108	=108	=108	=108	=108
2G\	i-	2d\	i-	2f\	i-
2c\	-te-	2c\	-te-	2e\	-te-
=109	=109	=109	=109	=109	=109
2G\	-rum	2d\	-rum	2f\	-rum
2G\	ven-	2B\	ven-	2d\	ven-
=110	=110	=110	=110	=110	=110
4E\	-tu-	4c\	-tu-	4e\	-tu-
4D\	-rus	4d\	-rus	4f\	-rus
2C/	est	2e\	est	2g\	est
=111	=111	=111	=111	=111	=111
1C	cum	4f\	cum	4a\	cum
.	.	4e\	.	4g\	.
.	.	4d\	.	4f\	.
.	.	4c\	.	4e\	.
=112	=112	=112	=112	=112	=112
2.G\	glo-	2.B\	glo-	2.d\	glo-
4G\	-ri-	4c\	-ri-	4e\	-ri-
!	!	!LO:LB:g=original	!	!	!
=113	=113	=113	=113	=113	=113
2G\	-a	2B\	-a	2d\	-a
4G\	ju-	4B\	ju-	4d\	ju-
4G\	-di-	4c\	-di-	4e\	-di-
!	!	!	!	!LO:LB:g=original	!
=114	=114	=114	=114	=114	=114
4G\	-ca-	4d\	-ca-	4f\	-ca-
4A\	.	4c\	.	4e\	.
4B\	.	4d\	.	4f\	.
4G\	.	4B\	.	4d\	.
!LO:LB:g=original	!	!	!	!	!
=115	=115	=115	=115	=115	=115
2c\	-re	2c\	-re	2e\	-re
4C\	vi-	4e\	vi-	4g\	vi-
4E\	.	4c\	.	4e\	.
=116	=116	=116	=116	=116	=116
2G\	-vos	2B\	-vos	2d\	-vos
2G\	et	2B\	et	2d\	et
=117	=117	=117	=117	=117	=117
!LO:TX:a:t=ada.	!	!	!	!	!
2.F#X\	mor-	2.c\	mor-	2.e-X\	mor-
4F#\	-tu-	4c\	-tu-	4e-\	-tu-
=118	=118	=118	=118	=118	=118
2G;\	-os	2B\	-os	2d\	-os
4G\	cu-	4B\	cu-	4d\	cu-
4G\	-jus	4c\	-jus	4en\	-jus
=119	=119	=119	=119	=119	=119
2G\	re-	2d\	re-	2f\	re-
2G\	-gni	2d\	-gni	2f\	-gni
!	!	!LO:PB:g=original	!	!	!
=120	=120	=120	=120	=120	=120
2r	.	2r	.	2r	.
2G\	non	2d\	non	2f\	non
!	!	!	!	!LO:LB:g=original	!
=121	=121	=121	=121	=121	=121
4C/	e-	2G/	e-	4e\	e-
4E/	.	.	.	4g\	.
4D/	.	2G/	-rit	4f\	.
4C/	-rit	.	.	4e\	-rit
!LO:PB:g=original	!	!	!	!	!
=122	=122	=122	=122	=122	=122
4G\	fi-	2B\	fi-	2d\	fi-
4F\	.	.	.	.	.
4E\	.	2c\	.	2e\	.
4F\	.	.	.	.	.
=123	=123	=123	=123	=123	=123
1G	.	2c\	.	1d	.
.	.	2B\	.	.	.
=124	=124	=124	=124	=124	=124
2C/	-nis	2c\	-nis	2e\	-nis
4C/	-et	4e\	-et	4g\	-et
4E/	in	4c\	in	4e\	in
=125	=125	=125	=125	=125	=125
2G\	Spi-	2B\	spi-	2d\	Spi-
4G\	-ri-	4B\	-ri-	4d\	-ri-
4c\	-tum	4c\	-tum	4e\	-tum
=126	=126	=126	=126	=126	=126
2G\	san-	4d\	san-	4f\	san-
.	.	4f\	.	4a\	.
2G\	-ctum	4e\	.	4g\	.
.	.	4d\	-ctum	4f\	-ctum
=127	=127	=127	=127	=127	=127
4E/	do-	4c\	do-	4e\	do-
4D/	-mi-	4B\	-mi-	4f\	-mi-
2C/	-num	2G/	-num	2e\	-num
!	!	!LO:LB:g=original	!	!LO:LB:g=original	!
=128	=128	=128	=128	=128	=128
4C/	et	4e\	et	4g\	et
4D/	vi-	4d\	vi-	4f\	vi-
4E\	-vi-	4c\	-vi-	4e\	-vi-
4F\	-fi-	4d\	-fi-	4f\	-fi-
!LO:LB:g=original	!	!	!	!	!
=129	=129	=129	=129	=129	=129
2G\	-can-	2c\	-can-	2e\	-can-
2G\	-tem	2B\	-tem	2d\	-tem
=130	=130	=130	=130	=130	=130
2r	.	2r	.	2r	.
4G\	qui	4d\	qui	4f\	qui
4G\	ex	4B\	ex	4d\	ex
=131	=131	=131	=131	=131	=131
4E\	Pa-	4c\	Pa-	4e\	Pa-
4D\	.	4d\	.	4f\	.
2C\	-tre	2e\	-tre	2g\	-tre
=132	=132	=132	=132	=132	=132
4G\	Fi-	4B\	fi-	4d\	fi-
4G\	-li-	4c\	-li-	4e\	-li-
2G\	-o-	2d\	-o-	2f\	-o-
=133	=133	=133	=133	=133	=133
4c\	-que	4c\	-que	4e\	-que
4G\	.	4d\	.	4f\	.
4E\	pro-	4e\	pro-	4g\	.
4F\	.	4d\	.	4f\	pro-
!	!	!	!	!LO:LB:g=original	!
=134	=134	=134	=134	=134	=134
2G\	-ce-	2c\	-ce-	2e\	-ce-
2GG/	.	2B\	.	2d\	.
!	!	!LO:LB:g=original	!	!	!
=135	=135	=135	=135	=135	=135
2C/	-dit	2G/	-dit	2e\	-dit
4C/	qui	4e\	qui	4g\	qui
4E/	cum	4c\	cum	4e\	cum
=136	=136	=136	=136	=136	=136
2G\	Pa-	2B\	Pa-	2d\	Pa-
4G\	-tre	4B\	-tre	4d\	-tre
4c\	et	4c\	et	4e\	et
!LO:LB:g=original	!	!	!	!	!
=137	=137	=137	=137	=137	=137
4G\	fi-	4d\	fi-	4f\	Fi-
4A\	.	4c\	.	4e\	.
4B\	.	4B\	.	4d\	.
4G\	-li-	4d\	-li-	4f\	-li-
=138	=138	=138	=138	=138	=138
2c\	-o	2c\	-o	2e\	-o
4E\	si-	4c\	si-	4e\	si-
4D\	-mul	4d\	-mul	4f\	-mul
=139	=139	=139	=139	=139	=139
4C/	a-	4e\	a-	4g\	a-
4BB/	.	4d\	.	4f\	.
4C/	.	4c\	-do-	4e\	.
4D/	-do-	4B\	.	4d\	-do-
!	!	!	!	!LO:LB:g=original	!
=140	=140	=140	=140	=140	=140
4C/	-ra-	4c\	-ra-	4e\	-ra-
4D/	.	4B\	.	4d\	.
4E\	.	4c\	.	4e\	.
4F\	.	8d\L	.	8f\L	.
.	.	8c\J	.	8e\J	.
!	!	!LO:LB:g=original	!	!	!
=141	=141	=141	=141	=141	=141
2G\	-tur	2B\	-tur	2d\	-tur
2G\	et	4B\	et	4d\	et
.	.	4c\	.	4e\	.
=142	=142	=142	=142	=142	=142
4G\	con-	4d\	con-	4f\	con-
4G\	-glo-	4c\	-glo-	4e\	-glo-
4G\	-ri-	4d\	-ri-	4f\	-ri-
4F\	-fi-	4B\	-fi-	4d\	-fi-
=143	=143	=143	=143	=143	=143
4E\	-ca-	4c\	-ca-	4e\	-ca-
4D\	.	4d\	.	4f\	.
2C/	-tur	2e\	-tur	2g\	-tur
!LO:LB:g=original	!	!	!	!	!
=144	=144	=144	=144	=144	=144
2r	.	2r	.	2r	.
4G\	qui	4d\	qui	4f\	qui
4G\	lo-	4c\	lo-	4e\	lo-
!	!	!	!	!LO:LB:g=original	!
=145	=145	=145	=145	=145	=145
4G\	-cu-	4B\	-cu-	4d\	-cu-
4G\	-tus	4B\	-tus	4d\	-tus
2G\	est	4B\	est	4d\	est
.	.	4c\	.	4e\	.
=146	=146	=146	=146	=146	=146
2G\	per	4d\	per	4f\	per
.	.	4c\	.	4e\	.
2G\	Pro-	4B\	.	4d\	.
.	.	4d\	Pro-	4f\	Pro-
!	!	!LO:LB:g=original	!	!	!
=147	=147	=147	=147	=147	=147
4C/	-phe-	4e\	-phe-	4g\	-phe-
4F/	.	4d\	.	4f\	.
2G\	.	4c\	.	4e\	.
.	.	4B\	.	4d\	.
=148	=148	=148	=148	=148	=148
2C/	-tas	2c\	-tas	2e\	-tas.
2C/	et	2c\	et	2e\	et
=149	=149	=149	=149	=149	=149
2C/	u-	2e\	u-	2g\	u-
2E\	-nam	2c\	-nam	2e\	-nam
=150	=150	=150	=150	=150	=150
2G\	San-	2d\	san-	2f\	San-
4G\	-ctam	4B\	-ctam	4d\	-ctam
4G\	Ca-	4B\	ca-	4d\	ca-
!LO:LB:g=original	!	!	!	!LO:LB:g=original	!
=151	=151	=151	=151	=151	=151
4E\	-tho-	4c\	-tho-	4e\	-tho-
4D\	-li-	4B\	-li-	4f\	-li-
2C/	-cam	2c\	-cam	2g\	-cam
=152	=152	=152	=152	=152	=152
2r	.	2r	.	2r	.
2G\	et	4d\	et	4f\	et
.	.	4c\	.	4e\	.
=153	=153	=153	=153	=153	=153
4G\	a-	4B\	a-	4d\	a-
4G\	-po-	4c\	-po-	4e\	-po-
4B\	-sto-	4d\	-sto-	4f\	-sto-
4G\	-li-	4B\	-li-	4d\	-li-
!	!	!LO:LB:g=original	!	!	!
=154	=154	=154	=154	=154	=154
2c\	-cam	4c\	-cam	4e\	-cam
.	.	4e\	Ec-	4g\	.
4B\	Ec-	4d\	.	4f\	Ec-
4c\	.	4c\	.	4e\	.
=155	=155	=155	=155	=155	=155
!	!	!	!LO:MO:mod=-cle-	!	!
2.G\	-cle-	2.B\	-cli-	2.d\	-cle-
4G\	-si-	4B\	-si-	4d\	-si-
=156	=156	=156	=156	=156	=156
2C/	-am,	2G/	-am	2e\	-am,
2c\	Con-	2e\	Con-	2g\	Con-
!	!	!	!	!LO:LB:g=original	!
=157	=157	=157	=157	=157	=157
2G\	-fi-	2d\	-fi-	2f\	-fi-
2G\	-te-	2B\	-te-	2d\	-te-
!LO:LB:g=original	!	!	!	!	!
=158	=158	=158	=158	=158	=158
2C/	-or	2c\	-or	2e\	-or
2C/	u-	2c\	u-	2e\	u-
=159	=159	=159	=159	=159	=159
2G\	-num	2B\	-num	2d\	-num
2G\	bap-	4c\	bap-	4e\	Bap-
.	.	4B\	.	4d\	.
=160	=160	=160	=160	=160	=160
4F#X\	-tis-	1A	-tis-	1c	-tis-
4D\	.	.	.	.	.
4E\	.	.	.	.	.
4F#\	.	.	.	.	.
!	!	!LO:LB:g=original	!	!	!
=161	=161	=161	=161	=161	=161
2G\	-ma	2G/	-ma	2B\	-ma
2r	.	4G/	in	4B\	in
.	.	4A/	re-	4c\	re-
=162	=162	=162	=162	=162	=162
1r	.	4B\	-miſ-	4d\	-miſ-
.	.	4c\	-si-	4e\	-si-
.	.	4d\	-o-	4f\	-o-
.	.	4d\	-nem	4f\	-nem
=163	=163	=163	=163	=163	=163
4c\	pec-	4c\	pec-	4e\	pec-
4G\	.	4B\	.	4d\	.
4E\	.	4c\	.	4e\	-ca-
4G\	-ca-	4d\	-ca-	4f\	.
!	!	!	!	!LO:PB:g=original	!
=164	=164	=164	=164	=164	=164
4C/	-to-	4e\	-to-	4g\	-to-
4F\	.	4d\	.	4f\	.
2G\	.	4c\	.	4e\	.
.	.	4B\	.	4d\	.
=165	=165	=165	=165	=165	=165
2C/	-rum	2c\	-rum	2e\	-rum.
!LO:LB:g=original	!	!	!	!	!
=-	=-	=-	=-	=-	=-
4G\	et	4B\	et	4d\	Et
4G\	ex-	4B\	ex-	4d\	ex-
=166	=166	=166	=166	=166	=166
2c\	-pec-	2G/	-pec-	2e\	-pec-
2G\	-to	2B\	-to	2d\	-to
!	!	!LO:LB:g=original	!	!	!
=167	=167	=167	=167	=167	=167
4G\	re-	4d\	re-	4f\	re-
4G\	-sur-	4c\	-sur-	4e\	-sur-
4G\	-re-	4d\	-re-	4f\	-re-
4G\	-cti-	4B\	-cti-	4d\	-cti-
=168	=168	=168	=168	=168	=168
4E\	-o-	4c\	-o-	4e\	-o-
4D\	.	4d\	.	4f\	.
2C/	-nem	2e\	-nem	2g\	-nem
=169	=169	=169	=169	=169	=169
2BB/	mor-	2d\	mor-	2f\	mor-
2C/	-tu-	2c\	-tu-	2e\	-tu-
=170	=170	=170	=170	=170	=170
1G	-o-	1B	-o-	1d	-o-
!	!	!	!	!LO:LB:g=original	!
=171	=171	=171	=171	=171	=171
2C/	-rum	2G/	-rum	2e\	-rum,
2C/	et	2G/	et	2e\	et
=172	=172	=172	=172	=172	=172
2G\	vi-	2B\	vi-	2d\	vi-
4G\	-tam	4B\	-tam	4d\	-tam
4G\	ven-	4c\	ven-	4e\	ven-
!LO:LB:g=original	!	!	!	!	!
=173	=173	=173	=173	=173	=173
4G\	-tu-	2d\	-tu-	2f\	-tu-
4A\	-ri	.	.	.	.
2B\	.	2d\	-ri	2f\	-ri
=174	=174	=174	=174	=174	=174
4r	.	4r	.	4r	.
4G\	ven-	4d\	ven-	4f\	ven-
4G\	-tu-	4c\	-tu-	4e\	-tu-
4F\	-ri	4B\	-ri	4d\	-ri
!	!	!LO:LB:g=original	!	!	!
=175	=175	=175	=175	=175	=175
4E\	sae-	4c\	sae-	4e\	sae-
4D\	-cu-	4d\	-cu-	4f\	-cu-
2C/	-li	2e\	-li	2g\	-li
=176	=176	=176	=176	=176	=176
1G	a-	4d\	a-	4f\	a-
.	.	4c\	.	4e\	.
.	.	4d\	.	4f\	.
.	.	4c\	.	4e\	.
!	!	!	!	!LO:LB:g=original	!
=177	=177	=177	=177	=177	=177
2G\	.	2B\	.	2d\	.
2c\	-men	2c\	-men	2e\	-men
=178	=178	=178	=178	=178	=178
1G	a-	1B	a-	1d	a-
=179	=179	=179	=179	=179	=179
1C	-men	1G	-men	1e	-men
!LO:PB:g=original	!	!LO:PB:g=original	!	!LO:LB:g=original	!
==	==	==	==	==	==
*-	*-	*-	*-	*-	*-
!!!system-decoration: [(s1,s2,s3)]
!!!ENC: Marta Chmielewska
!!!END: 2021-08-06
!!!ENC: Katarzyna Serwa
!!!END: 2021-07-09
!!!YEC: Copyright 2022 Narodowy Instytut Fryderyka Chopina (https://polishscores.org)
!!!YEM: License CC-BY-4.0 (https://creativecommons.org/licenses/by/4.0)
